docs/img/icons/helmet.svg

<svg width="48" height="48" viewBox="0 0 48 48" fill="none" xmlns="http://www.w3.org/2000/svg">
<path d="M45.1875 34.0856V29.625C45.1875 24.9949 43.6945 20.594 40.87 16.8982C38.3629 13.6176 34.8964 11.1016 31.026 9.73163C30.9183 7.50066 29.0697 5.71875 26.8125 5.71875H21.1875C18.9303 5.71875 17.0817 7.50066 16.974 9.73163C13.1036 11.1016 9.63713 13.6176 7.12997 16.8982C4.30547 20.594 2.8125 24.9949 2.8125 29.625V34.0856C1.17572 34.6661 0 36.2292 0 38.0625C0 40.3887 1.89253 42.2812 4.21875 42.2812H43.7812C46.1075 42.2812 48 40.3887 48 38.0625C48 36.2292 46.8243 34.6661 45.1875 34.0856ZM5.625 29.625C5.625 24.554 7.79119 19.8068 11.3438 16.4198V21.1875C11.3438 21.9641 11.9734 22.5938 12.75 22.5938C13.5266 22.5938 14.1562 21.9641 14.1562 21.1875V14.2141C15.0424 13.6484 15.9822 13.1549 16.9688 12.7442V24C16.9688 24.7766 17.5984 25.4062 18.375 25.4062C19.1516 25.4062 19.7812 24.7766 19.7812 24V10.7749C19.7813 10.771 19.7812 10.7672 19.7812 10.7633V9.9375C19.7812 9.16209 20.4121 8.53125 21.1875 8.53125H26.8125C27.5879 8.53125 28.2188 9.16209 28.2188 9.9375V10.763C28.2188 10.767 28.2187 10.7709 28.2188 10.775V24C28.2188 24.7766 28.8484 25.4062 29.625 25.4062C30.4016 25.4062 31.0312 24.7766 31.0312 24V12.7442C32.0178 13.155 32.9576 13.6485 33.8438 14.2141V21.1875C33.8438 21.9641 34.4734 22.5938 35.25 22.5938C36.0266 22.5938 36.6562 21.9641 36.6562 21.1875V16.4198C40.2088 19.8068 42.375 24.554 42.375 29.625V33.8438H5.625V29.625ZM43.7812 39.4688H4.21875C3.44334 39.4688 2.8125 38.8379 2.8125 38.0625C2.8125 37.2871 3.44334 36.6562 4.21875 36.6562H43.7812C44.5567 36.6562 45.1875 37.2871 45.1875 38.0625C45.1875 38.8379 44.5567 39.4688 43.7812 39.4688Z" fill="#9A9CA5"/>
</svg>

<svg width="48" height="48" fill="none" xmlns="http://www.w3.org/2000/svg"><path d="M45.188 34.086v-4.461c0-4.63-1.494-9.031-4.318-12.727a21.497 21.497 0 00-9.844-7.166 4.224 4.224 0 00-4.213-4.013h-5.625a4.224 4.224 0 00-4.214 4.013 21.497 21.497 0 00-9.844 7.166c-2.825 3.696-4.317 8.097-4.317 12.727v4.46A4.225 4.225 0 000 38.063a4.224 4.224 0 004.219 4.22H43.78A4.223 4.223 0 0048 38.061a4.225 4.225 0 00-2.813-3.976zM5.624 29.625c0-5.071 2.166-9.818 5.719-13.205v4.767a1.406 1.406 0 002.812 0v-6.973a18.292 18.292 0 012.813-1.47V24a1.406 1.406 0 002.812 0V9.938c0-.776.631-1.407 1.407-1.407h5.625c.775 0 1.406.631 1.406 1.406V24a1.406 1.406 0 002.812 0V12.744c.987.411 1.927.905 2.813 1.47v6.973a1.406 1.406 0 002.812 0V16.42c3.553 3.387 5.719 8.134 5.719 13.205v4.219H5.625v-4.219zm38.156 9.844H4.22a1.408 1.408 0 010-2.813h39.56a1.408 1.408 0 010 2.813z" fill="#9A9CA5"/></svg>
